svg/emoji_u1f4a0.svg

<svg width="128" height="128" xmlns="http://www.w3.org/2000/svg"><g fill="#cc4079"><path d="M56.12 52.86c2.23-1.58 4.93-2.53 7.88-2.53s5.66.95 7.89 2.53l16.87-16.87c3.94-3.94 3.94-10.33 0-14.28L71.14 4.11a10.103 10.103 0 0 0-14.28 0l-17.61 17.6c-3.94 3.94-3.95 10.34 0 14.28l16.87 16.87zM50.33 64c0-2.94.95-5.65 2.53-7.88L35.99 39.25c-3.94-3.94-10.33-3.94-14.28 0L4.11 56.86a10.103 10.103 0 0 0 0 14.28l17.61 17.61c3.94 3.94 10.34 3.95 14.28 0l16.87-16.87c-1.59-2.23-2.54-4.94-2.54-7.88zM123.89 56.86l-17.6-17.6c-3.94-3.94-10.34-3.95-14.28 0L75.14 56.12c1.58 2.23 2.53 4.94 2.53 7.88 0 2.94-.95 5.65-2.53 7.88l16.87 16.87c3.94 3.94 10.33 3.94 14.28 0l17.6-17.61c3.95-3.95 3.95-10.34 0-14.28zM71.89 75.14A13.613 13.613 0 0 1 64 77.67c-2.94 0-5.64-.95-7.87-2.53L39.25 92.01c-3.94 3.94-3.94 10.34 0 14.28l17.61 17.6c3.95 3.94 10.34 3.94 14.28 0l17.6-17.6c3.95-3.94 3.95-10.34.01-14.28L71.89 75.14z"/></g><path d="M73.67 64c0 5.34-4.33 9.67-9.67 9.67s-9.66-4.33-9.66-9.67c0-5.33 4.33-9.67 9.66-9.67 5.34 0 9.67 4.33 9.67 9.67z" fill="#fbb817"/></svg>

<?xml version="1.0" encoding="UTF-8" standalone="no"?>
<!DOCTYPE svg PUBLIC "-//W3C//DTD SVG 1.1//EN" "http://www.w3.org/Graphics/SVG/1.1/DTD/svg11.dtd">
<svg width="100%" height="100%" viewBox="0 0 128 128" version="1.1" xmlns="http://www.w3.org/2000/svg" xmlns:xlink="http://www.w3.org/1999/xlink" xml:space="preserve" xmlns:serif="http://www.serif.com/" style="fill-rule:evenodd;clip-rule:evenodd;stroke-linejoin:round;stroke-miterlimit:2;">
    <path d="M56.12,52.86C58.35,51.28 61.05,50.33 64,50.33C66.95,50.33 69.66,51.28 71.89,52.86L88.76,35.99C92.7,32.05 92.7,25.66 88.76,21.71L71.14,4.11C67.222,0.196 60.778,0.196 56.86,4.11L39.25,21.71C35.31,25.65 35.3,32.05 39.25,35.99L56.12,52.86ZM50.33,64C50.33,61.06 51.28,58.35 52.86,56.12L35.99,39.25C32.05,35.31 25.66,35.31 21.71,39.25L4.11,56.86C0.196,60.778 0.196,67.222 4.11,71.14L21.72,88.75C25.66,92.69 32.06,92.7 36,88.75L52.87,71.88C51.28,69.65 50.33,66.94 50.33,64ZM123.89,56.86L106.29,39.26C102.35,35.32 95.95,35.31 92.01,39.26L75.14,56.12C76.72,58.35 77.67,61.06 77.67,64C77.67,66.94 76.72,69.65 75.14,71.88L92.01,88.75C95.95,92.69 102.34,92.69 106.29,88.75L123.89,71.14C127.84,67.19 127.84,60.8 123.89,56.86ZM71.89,75.14C69.587,76.782 66.829,77.667 64,77.67C61.06,77.67 58.36,76.72 56.13,75.14L39.25,92.01C35.31,95.95 35.31,102.35 39.25,106.29L56.86,123.89C60.81,127.83 67.2,127.83 71.14,123.89L88.74,106.29C92.69,102.35 92.69,95.95 88.75,92.01L71.89,75.14Z" style="fill:rgb(64,192,231);fill-rule:nonzero;"/>
    <path d="M73.67,64C73.67,69.34 69.34,73.67 64,73.67C58.66,73.67 54.34,69.34 54.34,64C54.34,58.67 58.67,54.33 64,54.33C69.34,54.33 73.67,58.66 73.67,64Z" style="fill:rgb(251,184,23);fill-rule:nonzero;"/>
</svg>
